X:1
T: Miss Coulston
C:Niel Gow
R:Reel
Q: 232
K:Gm
M:4/4
L:1/8
|:c|Bc d2 G2 d2|B2 d2 g2 d2|f3c d3B|AB cA F3c|
B2 d2 G2 d2|B2 d2 g2 d2|f2 c2 dc BA|B2 G2 G3:|
g|d3g b2 g2|d3g b2 g2|f3a c3f|A2 F2 AB cA|
d3g b2 g2|d3g b2 g2|d3g ^fg af|g2 G2 G3g|
d3g b2 g2|d3g b2 g2|f2 a2 c2 f2|A2 F2 AB cA|
Bc d2 G2 d2|B3d g2 d2|f3c dc BA|B2 G2 G3||
